X:145 
T:Nelson's Pillar (reel)
S:Bogue MS
F:file ID: cre.4/145nels_p
B:CRE4.133(ii) (ColÃÂÃÂÃÂÃÂºn Nelson)
N:Close relative of 'Kane's Reel' (133[i]
L:1/8
Q:180
M:4/4
R:reel
K:D
DFAd edfd|(3Bcd AF GFEF|DFAd edfd|BdAG FD D2:|
fd~d2 bdfd|gefd cdeg|fd~d2 BdAd|FdEc dD D2:|

%%%

